src/images/global/icons/action/target.svg

<?xml version="1.0" encoding="UTF-8"?>
<svg width="48px" height="48px" viewBox="0 0 48 48" version="1.1" xmlns="http://www.w3.org/2000/svg" xmlns:xlink="http://www.w3.org/1999/xlink">
    <!-- Generator: Sketch 46.2 (44496) - http://www.bohemiancoding.com/sketch -->
    <title>icon/Action/target</title>
    <desc>Created with Sketch.</desc>
    <defs>
        <path d="M14.1818182,2.48410016 C18.5767954,3.16273441 22.0493868,6.63532577 22.728021,11.030303 L21.1298248,11.030303 C20.4826745,7.50715838 17.7049628,4.7294467 14.1818182,4.08229642 L14.1818182,2.48410016 Z M11.030303,2.48410016 C6.63532577,3.16273441 3.16273441,6.63532577 2.48410016,11.030303 L4.08229642,11.030303 C4.7294467,7.50715838 7.50715838,4.7294467 11.030303,4.08229642 L11.030303,2.48410016 Z M14.1818182,22.728021 C18.5767954,22.0493868 22.0493868,18.5767954 22.728021,14.1818182 L21.1298248,14.1818182 C20.4826745,17.7049628 17.7049628,20.4826745 14.1818182,21.1298248 L14.1818182,22.728021 Z M11.030303,22.728021 C6.63532577,22.0493868 3.16273441,18.5767954 2.48410016,14.1818182 L4.08229642,14.1818182 C4.7294467,17.7049628 7.50715838,20.4826745 11.030303,21.1298248 L11.030303,22.728021 Z M11.8181818,0.787878788 C11.8181818,0.352745349 12.1709272,2.13162821e-14 12.6060606,2.13162821e-14 C13.041194,2.13162821e-14 13.3939394,0.352745349 13.3939394,0.787878788 L13.3939394,7.09090909 C13.3939394,7.52604253 13.041194,7.87878788 12.6060606,7.87878788 C12.1709272,7.87878788 11.8181818,7.52604253 11.8181818,7.09090909 L11.8181818,0.787878788 Z M11.8181818,18.9090909 C11.8181818,18.4739575 12.1709272,18.1212121 12.6060606,18.1212121 C13.041194,18.1212121 13.3939394,18.4739575 13.3939394,18.9090909 L13.3939394,25.2121212 C13.3939394,25.6472547 13.041194,26 12.6060606,26 C12.1709272,26 11.8181818,25.6472547 11.8181818,25.2121212 L11.8181818,18.9090909 Z M18.9090909,13.3939394 C18.4739575,13.3939394 18.1212121,13.041194 18.1212121,12.6060606 C18.1212121,12.1709272 18.4739575,11.8181818 18.9090909,11.8181818 L25.2121212,11.8181818 C25.6472547,11.8181818 26,12.1709272 26,12.6060606 C26,13.041194 25.6472547,13.3939394 25.2121212,13.3939394 L18.9090909,13.3939394 Z M0.787878788,13.3939394 C0.352745349,13.3939394 0,13.041194 0,12.6060606 C0,12.1709272 0.352745349,11.8181818 0.787878788,11.8181818 L7.09090909,11.8181818 C7.52604253,11.8181818 7.87878788,12.1709272 7.87878788,12.6060606 C7.87878788,13.041194 7.52604253,13.3939394 7.09090909,13.3939394 L0.787878788,13.3939394 Z" id="path-1"></path>
    </defs>
    <g id="Symbols" stroke="none" stroke-width="1" fill="none" fill-rule="evenodd">
        <g id="icon/Action/target">
            <g id="Icon" transform="translate(11.000000, 11.000000)">
                <mask id="mask-2" fill="white">
                    <use xlink:href="#path-1"></use>
                </mask>
                <use id="Mask" fill="#384048" fill-rule="nonzero" xlink:href="#path-1"></use>
                <g id="Color/Grayscale/Night-Sky" mask="url(#mask-2)" fill="#111111">
                    <g transform="translate(-13.000000, -13.000000)" id="Swatch">
                        <rect x="0" y="0" width="52" height="52"></rect>
                    </g>
                </g>
            </g>
        </g>
    </g>
</svg>

<?xml version="1.0" encoding="utf-8"?>
<!-- Generator: Adobe Illustrator 21.0.2, SVG Export Plug-In . SVG Version: 6.00 Build 0)  -->
<svg version="1.1" id="action-target-Layer_1" xmlns="http://www.w3.org/2000/svg" xmlns:xlink="http://www.w3.org/1999/xlink" x="0px" y="0px"
	 viewBox="0 0 48 48" style="enable-background:new 0 0 48 48;" xml:space="preserve">
<title>icon/Action/target</title>
<g transform="translate(11 11)">
	<g>
		<path id="action-target-a_1_" style="fill:#384048;" d="M14.2,2.5c4.4,0.7,7.9,4.1,8.5,8.5h-1.6c-0.7-3.5-3.4-6.3-6.9-6.9
			C14.2,4.1,14.2,2.5,14.2,2.5z M11,2.5C6.6,3.2,3.2,6.6,2.5,11h1.6C4.7,7.5,7.5,4.7,11,4.1V2.5z M14.2,22.7
			c4.4-0.7,7.9-4.1,8.5-8.5h-1.6c-0.7,3.5-3.4,6.3-6.9,6.9C14.2,21.1,14.2,22.7,14.2,22.7z M11,22.7c-4.4-0.7-7.9-4.1-8.5-8.5h1.6
			c0.7,3.5,3.4,6.3,6.9,6.9V22.7z M11.8,0.8c0-0.4,0.4-0.8,0.8-0.8s0.8,0.4,0.8,0.8v6.3c0,0.4-0.4,0.8-0.8,0.8s-0.8-0.4-0.8-0.8
			C11.8,7.1,11.8,0.8,11.8,0.8z M11.8,18.9c0-0.4,0.4-0.8,0.8-0.8s0.8,0.4,0.8,0.8v6.3c0,0.4-0.4,0.8-0.8,0.8s-0.8-0.4-0.8-0.8V18.9
			L11.8,18.9z M18.9,13.4c-0.4,0-0.8-0.4-0.8-0.8s0.4-0.8,0.8-0.8h6.3c0.4,0,0.8,0.4,0.8,0.8s-0.4,0.8-0.8,0.8H18.9L18.9,13.4z
			 M0.8,13.4C0.4,13.4,0,13,0,12.6s0.4-0.8,0.8-0.8h6.3c0.4,0,0.8,0.4,0.8,0.8s-0.4,0.8-0.8,0.8C7.1,13.4,0.8,13.4,0.8,13.4z"/>
	</g>
	<defs>
		<filter id="action-target-Adobe_OpacityMaskFilter" filterUnits="userSpaceOnUse" x="-13" y="-13" width="52" height="52">
			<feColorMatrix  type="matrix" values="1 0 0 0 0  0 1 0 0 0  0 0 1 0 0  0 0 0 1 0"/>
		</filter>
	</defs>
	<mask maskUnits="userSpaceOnUse" x="-13" y="-13" width="52" height="52" id="action-target-b">
		<g style="filter:url(#action-target-Adobe_OpacityMaskFilter);">
			<path id="action-target-a" style="fill:#FFFFFF;" d="M14.2,2.5c4.4,0.7,7.9,4.1,8.5,8.5h-1.6c-0.7-3.5-3.4-6.3-6.9-6.9
				C14.2,4.1,14.2,2.5,14.2,2.5z M11,2.5C6.6,3.2,3.2,6.6,2.5,11h1.6C4.7,7.5,7.5,4.7,11,4.1V2.5z M14.2,22.7
				c4.4-0.7,7.9-4.1,8.5-8.5h-1.6c-0.7,3.5-3.4,6.3-6.9,6.9C14.2,21.1,14.2,22.7,14.2,22.7z M11,22.7c-4.4-0.7-7.9-4.1-8.5-8.5h1.6
				c0.7,3.5,3.4,6.3,6.9,6.9V22.7z M11.8,0.8c0-0.4,0.4-0.8,0.8-0.8s0.8,0.4,0.8,0.8v6.3c0,0.4-0.4,0.8-0.8,0.8s-0.8-0.4-0.8-0.8
				C11.8,7.1,11.8,0.8,11.8,0.8z M11.8,18.9c0-0.4,0.4-0.8,0.8-0.8s0.8,0.4,0.8,0.8v6.3c0,0.4-0.4,0.8-0.8,0.8s-0.8-0.4-0.8-0.8
				V18.9L11.8,18.9z M18.9,13.4c-0.4,0-0.8-0.4-0.8-0.8s0.4-0.8,0.8-0.8h6.3c0.4,0,0.8,0.4,0.8,0.8s-0.4,0.8-0.8,0.8H18.9L18.9,13.4
				z M0.8,13.4C0.4,13.4,0,13,0,12.6s0.4-0.8,0.8-0.8h6.3c0.4,0,0.8,0.4,0.8,0.8s-0.4,0.8-0.8,0.8C7.1,13.4,0.8,13.4,0.8,13.4z"/>
		</g>
	</mask>
	<g style="mask:url(#action-target-b);">
		<path style="fill:#111111;" d="M-13-13h52v52h-52V-13z"/>
	</g>
</g>
</svg>
